X:35
T:The Pleasure of Hope
S:Angelina Carberry, Swannanoa 2009
L:1/8
R:Hornpipe
Z:Alf Warnock - alf0@rogers.com
M:4/4
K:D
(3ABc|dAFA BGEG|(3FED FA dAFD|Eeef gefd|eAAB AGFE|
Dddc dAFD|Eeef gecA|dfaf bgec|d2dc d2:|
(3ABc|dfaf bgec|dfaf gecA|dfaf gfed|B2BA BdAF|
Dddc dAFD|Eeef gece|dfaf bgec|d2dc d2:|
